X: 28
T: Laughing Boy
B: canberra pickers and fiddlers
B: tunes
M:C|
L:1/8
Q: 1/4=100
K:A
V:1 
[E2A2]-|[E2A2][ce][cf] [c2e2][c2c]|efec +slide+[Ac][AB][AA][AB]|cdcB AFEB,|[A,2E2][A,4F4][E2A2e2]-|
[E2A2e2][ce][cf] [c2e2][c2c]|efec +slide+[Ac][AB][AA][AB]|cdcB AFEC|[B,2E2][A,4E4]:|
|:[A,2E2]-|[A,2E2]"+"c2"+"A2"+"c2|"+"A2"+"c2 [EB]-[E3c3]|cdcB AFEB,|[A,2E2][A,4F4][A,2E2]-|
[A,2E2]"+"c2"+"A2"+"c2|"+"A2"+"c2 [EB]-[E3c3]|cdcB AFEC|[B,2E2][A,4E4]:|]
% abcbook-tune_id 63da59340eb52bfb9beb48f7
% abcbook-tune_composer_id 
% abcbook-link-0 https://www.youtube.com/watch?v=VmVFbom_6ho
% abcbook-boost 18
% abcbook-difficulty 0
% abcbook-tags canberra pickers and fiddlers,old time tunes,© free
% abcbook-tablature 
% abcbook-transpose 
% abcbook-tuning AEAC#
% abcbook-lastupdated 1722907306267
% abcbook-src-url https://tunebook.net/scrape/tunes.abc
% abcbook-soundfonts 
% abcbook-repeats 1
%%gchordfont "itim-music,Itim" 20

